wordpress/wp-content/plugins/google-analytics-for-wordpress/lite/assets/vue/img/arrow-right.svg

<svg width="20" height="15" viewBox="0 0 20 15" fill="none" xmlns="http://www.w3.org/2000/svg">
<path d="M15.0764 8.78821C15.1742 8.6893 15.1044 8.52178 14.9655 8.52178H14.9192C7.95871 8.52178 8.31663 8.52178 1.35618 8.52178C0.643215 8.52178 0.246995 8.27307 0.0674666 7.7179C-0.192678 6.91288 0.325896 6.15132 1.16922 6.10215C1.29272 6.09471 1.41622 6.097 1.53971 6.097C8.44298 6.097 8.0279 6.097 14.9312 6.097H14.9769C15.1158 6.097 15.1862 5.92891 15.0878 5.83057L15.0855 5.82828C13.854 4.60131 12.6236 3.37263 11.3892 2.14852C11.0307 1.79289 10.8655 1.38638 11.0101 0.885529C11.256 0.035342 12.2783 -0.280262 12.9604 0.284052C13.0553 0.362381 13.1405 0.453289 13.2279 0.540194C15.157 2.46755 17.0855 4.39434 19.014 6.32227C19.6624 6.97006 19.6652 7.64015 19.0226 8.28279C17.0478 10.2576 15.0655 12.2256 13.0993 14.2095C12.2914 15.0248 11.2017 14.4908 10.9918 13.6521C10.8723 13.1764 11.053 12.8024 11.3835 12.4725C12.6087 11.2524 13.8317 10.03 15.0552 8.80822C15.0621 8.80136 15.069 8.7945 15.0752 8.78764L15.0764 8.78821Z" fill="#E43462"/>
</svg>

<svg width="20" height="15" fill="none" xmlns="http://www.w3.org/2000/svg"><path d="M15.076 8.788a.156.156 0 00-.11-.266H1.355c-.713 0-1.109-.249-1.289-.804-.26-.805.259-1.567 1.102-1.616.124-.007.247-.005.37-.005h13.44c.139 0 .21-.168.11-.266l-.002-.003c-1.231-1.227-2.461-2.455-3.696-3.68-.358-.355-.523-.762-.379-1.262a1.216 1.216 0 011.95-.602c.095.078.18.17.268.256l5.786 5.782c.648.648.651 1.318.009 1.96-1.975 1.976-3.957 3.944-5.924 5.928-.808.815-1.897.28-2.107-.558-.12-.476.061-.85.391-1.18 1.226-1.22 2.449-2.442 3.672-3.664a.547.547 0 00.02-.02h.001z" fill="#E43462"/></svg>
